assets/marketplace/buy.svg

<svg fill="none" height="18" viewBox="0 0 21 18" width="21" xmlns="http://www.w3.org/2000/svg"><path clip-rule="evenodd" d="m6.0914 8.725c-.80274-3.0684-2.12152-8.105224-2.12152-8.105224-.05733-.260525-.28669-.434209-.54471-.434209h-2.666221c-.283044 0-.519899.209867-.56547.483099.045769-.272996.282511-.482616.565389-.482616h2.666222c.25802 0 .48738.173683.54471.434209 0 0 1.31878 5.036821 2.12152 8.105231h11.18098l1.9495-6.10787h-.0001l-1.9494 6.10738zm-.90908-6.78515c.04679-.27178.28295-.48012.56497-.48012h14.27721c.172 0 .344.08684.4587.23158.0962.12149.1319.28377.107.43549.0251-.15186-.0106-.31436-.1069-.43598-.1147-.14473-.2867-.23157-.4587-.23157h-14.27723c-.28219 0-.51846.20859-.56505.4806zm1.25323 7.91458h-.00021c.11468.43417.20069.75267.25803.95527.20068.8395.65939.8395.65939.8395h9.03074c1.2041 0 1.8062.8973 1.9782 1.4184.0265.0892.0312.184.0158.2749.0155-.0911.0108-.186-.0157-.2754-.1721-.5211-.7741-1.4184-1.9782-1.4184h-9.03076s-.45871 0-.65939-.8395c-.04884-.1726-.11847-.4291-.20889-.7697zm-5.676601-8.32541h2.094211c.53554 1.98038 2.26274 8.51508 2.54206 9.64318l.00035.0014c.24183.9462.72625 1.4179 1.17004 1.646.21855.1124.42151.1627.57083.185.07476.0111.13652.0153.18071.0166.02212.0007.0399.0006.05279.0004l.01614-.0005h8.99752c.4804 0 .6698.395.7167.4928l.0014.003c.1171.3032.4159.4884.7153.4884h.0076c.0511.0001.1389.0003.2301-.0403.4227-.1268.5933-.5864.485-.9508l-.0017-.0053c-.1863-.5643-.8404-1.5458-2.1544-1.5458h-9.02613l-.0014-.0002c-.00447-.0005-.01395-.002-.0273-.0058-.02638-.0075-.06898-.0242-.11896-.0618-.09764-.0733-.24301-.2414-.33573-.6293l-.00208-.0073c-.04615-.1631-.11126-.4027-.19543-.7192h11.02583c.3134 0 .6043-.22744.7155-.48936l.0033-.00787 2.3246-7.27305c.0749-.2278.0393-.4962-.1171-.69364-.1469-.1854-.3708-.3019-.6041-.3019h-14.27723c-.41953 0-.75895.3453-.75895.76451s.33942.76451.75895.76451h13.22043l-1.831 5.73674h-10.90214c-.39667-1.51618-.90832-3.47095-1.32553-5.0647l-.75887-2.898666c-.07822-.346965-.38482-.576074-.72509-.576074h-2.666221c-.419531 0-.758949.3453-.758949.764512 0 .419208.339418.764508.758949.764508zm6.937911 11.75778c-1.2796 0-2.33574 1.069-2.33574 2.3566s1.05614 2.3566 2.33574 2.3566c1.27961 0 2.33574-1.069 2.33574-2.3566 0-1.3182-1.05774-2.3566-2.33574-2.3566zm0 3.1842c-.44054 0-.81785-.3784-.81785-.8276s.37731-.8276.81785-.8276c.44055 0 .81785.3784.81785.8276s-.3773.8276-.81785.8276zm7.19594-3.1842c-1.2796 0-2.3357 1.069-2.3357 2.3566s1.0561 2.3566 2.3357 2.3566 2.3357-1.069 2.3357-2.3566c0-1.3166-1.0274-2.3566-2.3357-2.3566zm0 3.1842c-.4405 0-.8178-.3784-.8178-.8276s.3773-.8276.8178-.8276.8178.3784.8178.8276c0 .4527-.352.8276-.8178.8276zm-5.07571-.4695c.01964-.1165.02987-.236.02987-.3576 0-1.2158-.97474-2.1711-2.15018-2.1711-1.0467 0-1.93427.7805-2.11613 1.7895.18166-1.0093 1.06934-1.7899 2.11621-1.7899 1.17544 0 2.15018.9552 2.15018 2.171 0 .1218-.01026.2414-.02995.3581zm-2.12023.655c-.54471 0-1.00341-.4631-1.00341-1.0131 0-.0547.00453-.1085.01324-.1612-.00876.0528-.01332.1068-.01332.1617 0 .55.4587 1.0131 1.00341 1.0131.49054 0 .91133-.3756.99018-.852-.07906.4762-.49973.8515-.9901.8515zm5.07974-1.3942c.1818-1.009 1.0694-1.7895 2.1161-1.7895 1.2041 0 2.1502.9553 2.1502 2.1711 0 .1216-.0102.2411-.0299.3576.0197-.1167.03-.2363.03-.3581 0-1.2158-.9461-2.171-2.1502-2.171-1.0469 0-1.9346.7806-2.1162 1.7899zm2.1162 1.3942c-.5447 0-1.0034-.4631-1.0034-1.0131 0-.0547.0045-.1085.0132-.1612-.0087.0528-.0133.1068-.0133.1617 0 .55.4587 1.0131 1.0034 1.0131.5119 0 .9095-.3691.9889-.8396-.0796.4703-.4771.8391-.9888.8391z" fill="#fff" fill-rule="evenodd"/></svg>

<svg width="21" height="18" viewBox="0 0 21 18" fill="none" xmlns="http://www.w3.org/2000/svg">
<path fill-rule="evenodd" clip-rule="evenodd" d="M6.0914 8.725C5.28866 5.6566 3.96988 0.619776 3.96988 0.619776C3.91255 0.359251 3.68319 0.185567 3.42517 0.185567H0.758949C0.475905 0.185567 0.23905 0.395434 0.193479 0.668666C0.239248 0.39567 0.47599 0.18605 0.758868 0.18605H3.42509C3.68311 0.18605 3.91247 0.359733 3.9698 0.620259C3.9698 0.620259 5.28858 5.65708 6.09132 8.72549H17.2723L19.2218 2.61762H19.2217L17.2723 8.725H6.0914ZM5.18232 1.93985C5.22911 1.66807 5.46527 1.45973 5.74729 1.45973H20.0245C20.1965 1.45973 20.3685 1.54657 20.4832 1.69131C20.5794 1.8128 20.6151 1.97508 20.5902 2.1268C20.6153 1.97494 20.5796 1.81244 20.4833 1.69082C20.3686 1.54609 20.1966 1.45925 20.0246 1.45925H5.74737C5.46518 1.45925 5.22891 1.66784 5.18232 1.93985ZM6.43555 9.85443H6.43534C6.55002 10.2886 6.63603 10.6071 6.69337 10.8097C6.89405 11.6492 7.35276 11.6492 7.35276 11.6492H16.3835C17.5876 11.6492 18.1897 12.5465 18.3617 13.0676C18.3882 13.1568 18.3929 13.2516 18.3775 13.3425C18.393 13.2514 18.3883 13.1565 18.3618 13.0671C18.1897 12.546 17.5877 11.6487 16.3836 11.6487H7.35284C7.35284 11.6487 6.89413 11.6487 6.69345 10.8092C6.64461 10.6366 6.57498 10.3801 6.48456 10.0395L6.43555 9.85443ZM0.758949 1.52902H2.85316C3.3887 3.5094 5.1159 10.0441 5.39522 11.1722L5.39557 11.1736C5.6374 12.1198 6.12182 12.5915 6.56561 12.8196C6.78416 12.932 6.98712 12.9823 7.13644 13.0046C7.2112 13.0157 7.27296 13.0199 7.31715 13.0212C7.33927 13.0219 7.35705 13.0218 7.36994 13.0216L7.38608 13.0211H16.3836C16.864 13.0211 17.0534 13.4161 17.1003 13.5139L17.1017 13.5169C17.2188 13.8201 17.5176 14.0053 17.817 14.0053L17.8246 14.0053C17.8757 14.0054 17.9635 14.0056 18.0547 13.965C18.4774 13.8382 18.648 13.3786 18.5397 13.0142L18.538 13.0089C18.3517 12.4446 17.6976 11.4631 16.3836 11.4631H7.35747L7.35607 11.4629C7.3516 11.4624 7.34212 11.4609 7.32877 11.4571C7.30239 11.4496 7.25979 11.4329 7.20981 11.3953C7.11217 11.322 6.9668 11.1539 6.87408 10.766L6.872 10.7587C6.82585 10.5956 6.76074 10.356 6.67657 10.0395H17.7024C18.0158 10.0395 18.3067 9.81206 18.4179 9.55014L18.4212 9.54227L20.7458 2.26922C20.8207 2.04142 20.7851 1.77302 20.6287 1.57558C20.4818 1.39018 20.2579 1.27368 20.0246 1.27368H5.74737C5.32784 1.27368 4.98842 1.61898 4.98842 2.03819C4.98842 2.4574 5.32784 2.8027 5.74737 2.8027H18.9678L17.1368 8.53944H6.23466C5.83799 7.02326 5.32634 5.06849 4.90913 3.47474L4.15026 0.576074C4.07204 0.229109 3.76544 0 3.42517 0H0.758949C0.339418 0 0 0.3453 0 0.764512C0 1.18372 0.339418 1.52902 0.758949 1.52902ZM7.69686 13.2868C6.41726 13.2868 5.36112 14.3558 5.36112 15.6434C5.36112 16.931 6.41726 18 7.69686 18C8.97647 18 10.0326 16.931 10.0326 15.6434C10.0326 14.3252 8.97486 13.2868 7.69686 13.2868ZM7.69686 16.471C7.25632 16.471 6.87901 16.0926 6.87901 15.6434C6.87901 15.1942 7.25632 14.8158 7.69686 14.8158C8.13741 14.8158 8.51471 15.1942 8.51471 15.6434C8.51471 16.0926 8.13741 16.471 7.69686 16.471ZM14.8928 13.2868C13.6132 13.2868 12.5571 14.3558 12.5571 15.6434C12.5571 16.931 13.6132 18 14.8928 18C16.1724 18 17.2285 16.931 17.2285 15.6434C17.2285 14.3268 16.2011 13.2868 14.8928 13.2868ZM14.8928 16.471C14.4523 16.471 14.075 16.0926 14.075 15.6434C14.075 15.1942 14.4523 14.8158 14.8928 14.8158C15.3333 14.8158 15.7106 15.1942 15.7106 15.6434C15.7106 16.0961 15.3586 16.471 14.8928 16.471ZM9.81709 16.0015C9.83673 15.885 9.84696 15.7655 9.84696 15.6439C9.84696 14.4281 8.87222 13.4728 7.69678 13.4728C6.65008 13.4728 5.76251 14.2533 5.58065 15.2623C5.76231 14.253 6.64999 13.4724 7.69686 13.4724C8.8723 13.4724 9.84704 14.4276 9.84704 15.6434C9.84704 15.7652 9.83678 15.8848 9.81709 16.0015ZM7.69686 16.6565C7.15215 16.6565 6.69345 16.1934 6.69345 15.6434C6.69345 15.5887 6.69798 15.5349 6.70669 15.4822C6.69793 15.535 6.69337 15.589 6.69337 15.6439C6.69337 16.1939 7.15207 16.657 7.69678 16.657C8.18732 16.657 8.60811 16.2814 8.68696 15.805C8.6079 16.2812 8.18723 16.6565 7.69686 16.6565ZM12.7766 15.2623C12.9584 14.2533 13.846 13.4728 14.8927 13.4728C16.0968 13.4728 17.0429 14.4281 17.0429 15.6439C17.0429 15.7655 17.0327 15.885 17.013 16.0015C17.0327 15.8848 17.043 15.7652 17.043 15.6434C17.043 14.4276 16.0969 13.4724 14.8928 13.4724C13.8459 13.4724 12.9582 14.253 12.7766 15.2623ZM14.8928 16.6565C14.3481 16.6565 13.8894 16.1934 13.8894 15.6434C13.8894 15.5887 13.8939 15.5349 13.9026 15.4822C13.8939 15.535 13.8893 15.589 13.8893 15.6439C13.8893 16.1939 14.348 16.657 14.8927 16.657C15.4046 16.657 15.8022 16.2879 15.8816 15.8174C15.802 16.2877 15.4045 16.6565 14.8928 16.6565Z" fill="white"/>
</svg>
